packages/foundations/assets/icons/functional/images/maps/road_sign_14.svg

<svg width="14" height="14" viewBox="0 0 14 14" fill="none" xmlns="http://www.w3.org/2000/svg">
<g clip-path="url(#clip0_186_117)">
<path fill-rule="evenodd" clip-rule="evenodd" d="M9.42527 1.25647C9.87399 1.25647 10.3856 1.48083 10.6548 1.81733L12.1131 3.83663C12.36 4.12826 12.4721 4.50964 12.4721 4.84621C12.4721 5.20519 12.36 5.54176 12.1131 5.85579L10.653 7.83015C10.3388 8.23407 9.9369 8.43596 9.42084 8.43596H7.27142V11.3078H9.40287C9.80664 11.3078 10.1432 11.6219 10.1432 12.0257C10.1432 12.4071 9.87399 12.7436 9.40287 12.7436H3.68168C3.3003 12.7436 2.96373 12.4295 2.96373 12.0257C2.96373 11.6219 3.27783 11.3078 3.68168 11.3078H5.83552V8.43596H3.14322C2.24578 8.43596 1.52783 7.71801 1.52783 6.84297V2.89425C1.52783 1.99682 2.24578 1.25647 3.14322 1.25647H9.42527ZM9.42084 2.69237H2.96373V7.00006H9.42084L11.0362 4.84621L9.42084 2.69237Z" fill="#1A1C1F"/>
</g>
<defs>
<clipPath id="clip0_186_117">
<rect width="14" height="14" fill="white"/>
</clipPath>
</defs>
</svg>

<svg xmlns="http://www.w3.org/2000/svg" width="14" height="14" fill="none"><g clip-path="url(#a)"><path fill="#1A1C1F" fill-rule="evenodd" d="M9.425 1.256c.449 0 .96.225 1.23.561l1.458 2.02c.247.291.36.673.36 1.01 0 .358-.113.695-.36 1.009l-1.46 1.974a1.48 1.48 0 0 1-1.232.606H7.27v2.872h2.132c.404 0 .74.314.74.718 0 .381-.269.718-.74.718H3.682a.723.723 0 0 1-.718-.718c0-.404.314-.718.718-.718h2.154V8.436H3.143a1.604 1.604 0 0 1-1.615-1.593V2.894c0-.897.718-1.638 1.615-1.638zm-.004 1.436H2.964V7H9.42l1.615-2.154z" clip-rule="evenodd"/></g><defs><clipPath id="a"><path fill="#fff" d="M0 0h14v14H0z"/></clipPath></defs></svg>
